logos/vim.svg

<svg preserveAspectRatio="xMidYMid" viewBox="0 0 256 257" xmlns="http://www.w3.org/2000/svg">
  <path fill="#019833" d="M128.286 1.952 1.945 127.885 128.286 254.4l125.761-126.515L128.286 1.952"/>
  <path fill="#66FE98" d="M128.264 13.516V2.885L2.774 127.908h10.753L128.264 13.516"/>
  <path fill="#45FE02" d="M128.264 13.516V2.885l125.88 125.023h-11.636L128.264 13.516"/>
  <path fill="#017D17" d="M128.264 242.836v11.769L2.774 127.908h10.753l114.737 114.928"/>
  <path fill="#005D04" d="M128.264 242.836v11.769l125.88-126.697h-11.636L128.264 242.836"/>
  <path d="M65.226 230.591H40.9l-9.5-9.258V44.55h-7.54l-6.455-6.464V18.325l6.687-7.253h85.075l7.649 7.658v18.756l-6.356 7.747h-6.428v59.758l60.487-59.758h-3.377l-7.035-7.587V17.758l6.912-6.345h85.872l6.796 6.805v18.81L65.226 230.591"/>
  <path d="M128.264 256.342 0 127.908 128.264 0 256 127.908 128.264 256.342ZM3.929 127.908 128.264 252.41l123.805-124.502L128.264 3.935 3.929 127.908Z"/>
  <path fill="#FEFEFE" d="m108.075 22.742 3.779-2.441-3.861-4.008H26.156l-4.158 4.164v15.75l4.61 4.616 2.199-4.616-2.892-2.897V22.207l2.169-1.931 77.264.095 2.727 2.371"/>
  <path fill="#FEFEFE" d="M41.458 35.833v184.334l2.592 2.468-2.077 3.925-5.451-5.369V40.612l4.936-4.779"/>
  <path fill="gray" d="m28.236 35.833-1.628 4.99h9.886l5.719-4.99H28.236"/>
  <path fill="#FEFEFE" d="m166.531 35.897-3.457-2.442v-9.896l3.616-3.621h75.449l2.893 3.862 4.117-3.249-4.238-3.872h-81.114l-4.038 4.043v15.871l4.252 3.848m-65.615 76.31-7.879 19.144 88.948-89.309-.435-10.804-80.634 80.969"/>
  <path fill="gray" d="m107.897 22.671 3.957-2.37v15.532l-4.517 4.523h-8.778l-.163 76.395-7.849 19.1V35.833h14.659l2.727-2.219-.036-10.943"/>
  <path fill="gray" d="m244.764 22.722 4.385-2.171v14.183L62.408 226.56H41.973l1.994-3.77 15.695.001L244.791 31.379l-.027-8.657"/>
  <path fill="gray" d="m179.03 35.782-4.548 4.569-10.471.09 2.557-4.59 12.462-.069"/>
  <path fill="#CCC" d="m165.973 19.79-2.89 2.893v10.624l2.531 2.534h13.372v10.265l-88.46 89.783V35.968h14.701l3.016-3.02V22.197l-2.784-2.154H28.093l-2.531 2.535V33.56l2.573 2.577h13.457v184.002l2.531 2.534h15.292L244.794 31.131v-8.448l-2.89-2.893h-75.931"/>
  <path fill="gray" d="M59.519 222.918H44.022l-2.674-2.678V36.381H28.034l-2.716-2.72V22.476l2.674-2.677h77.551l2.945 2.278v10.972l-3.159 3.163H90.77v99.081l87.972-89.288v-9.919h-13.229l-2.674-2.678V22.582l3.032-3.037h76.134l3.033 3.037v8.648l-.068.071L59.519 222.918Zm-15.294-.489h15.087L244.55 31.033v-8.249l-2.747-2.75h-75.729l-2.747 2.75v10.422l2.388 2.391h13.516v10.609l-.07.071-88.879 90.208V35.724h14.844l2.873-2.878V22.317l-2.623-2.03H28.194l-2.388 2.392v10.78l2.431 2.434h13.599v184.144l2.389 2.392Z"/>
  <path fill="#CCC" d="M134.566 143.819a.834.834 0 0 0-.38.19l-3.585 3.083a.84.84 0 0 0-.232.359l-3.586 10.054a.835.835 0 0 0 .19.866l2.742 2.745a.835.835 0 0 0 .591.233h11.073a.83.83 0 0 0 .59-.233l2.89-2.914c.1-.1.172-.224.211-.359l3.08-10.582a.835.835 0 0 0-.211-.823l-2.384-2.387a.827.827 0 0 0-.59-.232h-10.23a.796.796 0 0 0-.169 0Zm-20.29 28.343a.833.833 0 0 0-.633.613l-1.371 5.449a.833.833 0 0 0 .801 1.035h6.518l-16.157 46.19a.833.833 0 0 0 .781 1.099h23.517a.834.834 0 0 0 .802-.571l1.54-4.963a.834.834 0 0 0-.802-1.077h-5.315l15.988-46.676a.833.833 0 0 0-.781-1.099h-24.72a.943.943 0 0 0-.168 0Zm74.835.169a.835.835 0 0 0-.465.275l-4.893 5.533h-7.783l-5.189-5.385a.828.828 0 0 0-.59-.254h-18.582a.832.832 0 0 0-.781.549l-1.708 5.112a.834.834 0 0 0 .78 1.098h4.978l-15.482 45.683a.835.835 0 0 0 .781 1.099h19.784a.833.833 0 0 0 .781-.549l1.518-4.457a.833.833 0 0 0-.78-1.098h-3.459l9.871-31.111h17.865l-11.263 36.138a.832.832 0 0 0 .801 1.077h19.088a.834.834 0 0 0 .76-.507l1.708-4.098a.832.832 0 0 0-.759-1.14h-3.459l10.04-31.639h17l-11.432 36.307a.833.833 0 0 0 .802 1.077h20.965a.835.835 0 0 0 .781-.528l1.708-4.457a.833.833 0 0 0-.78-1.119h-4.156l12.635-41.079a.836.836 0 0 0-.127-.761l-3.923-5.28a.832.832 0 0 0-.675-.317h-14.996a.829.829 0 0 0-.612.254l-4.725 5.195h-8.268l-4.893-5.364a.83.83 0 0 0-.612-.254h-12.086a.943.943 0 0 0-.168 0Z"/>
  <path d="M128.359 162.524c.523.504 1.207.78 1.901.78l.046-.001h11.039c.742.023 1.444-.263 2.013-.81l2.883-2.909c.334-.334.579-.751.706-1.195l3.079-10.58a2.785 2.785 0 0 0-.705-2.752l-2.409-2.413a2.713 2.713 0 0 0-1.947-.78h-10.16a2.756 2.756 0 0 0-.436.01l-.205.032c-.47.099-.909.318-1.252.62l-3.586 3.084-.041.037c-.349.318-.612.72-.764 1.167l-3.578 10.031a2.81 2.81 0 0 0 .647 2.907l2.769 2.772Zm16.154-16.751 1.575 1.577-2.816 9.676-2.346 2.368-10.168.001-1.897-1.9 3.257-9.13 3.014-2.592h9.381Z"/>
  <path d="m241.638 176.931-3.923-5.28-.035-.045a2.792 2.792 0 0 0-2.225-1.06h-14.948a2.763 2.763 0 0 0-2.049.848l-4.184 4.601h-6.541l-4.312-4.727-.04-.043a2.818 2.818 0 0 0-2.016-.848h-12.016a2.759 2.759 0 0 0-.436.01l-.202.031a2.78 2.78 0 0 0-1.529.893l-4.31 4.874h-6.071l-4.615-4.79a2.81 2.81 0 0 0-1.995-.849h-18.588a2.796 2.796 0 0 0-2.612 1.837l-1.724 5.155a2.792 2.792 0 0 0 2.633 3.675h2.252l-14.61 43.11a2.794 2.794 0 0 0 1.757 3.528c.277.092.565.141.878.144h19.79a2.807 2.807 0 0 0 2.625-1.873l1.522-4.466a2.793 2.793 0 0 0-2.634-3.674h-.789l8.631-27.201H183.1l-10.476 33.611a2.791 2.791 0 0 0 1.847 3.48 3.1 3.1 0 0 0 .824.123H194.4a2.79 2.79 0 0 0 2.547-1.709l1.722-4.13a2.79 2.79 0 0 0-2.577-3.815h-.788l8.799-27.729h12.905l-10.637 33.782a2.792 2.792 0 0 0 2.657 3.601h20.967a2.817 2.817 0 0 0 2.619-1.783l1.719-4.485a2.791 2.791 0 0 0-2.616-3.745h-1.51l11.847-38.518a2.788 2.788 0 0 0-.416-2.533Zm-16.723 44.96h5.169l-.842 2.195h-18.676l11.772-37.383h-21.096l-11.28 35.548h4.432l-.765 1.835h-16.815l11.599-37.214h-21.952l-11.111 35.019h4.554l-.748 2.195H141.75l15.854-46.782h-6.137l.952-2.849h17.287l5.433 5.639h9.495l5.135-5.808 11.114-.001 5.124 5.619h9.996l4.955-5.449h13.97l3.236 4.356-13.249 43.08Z"/>
  <path d="M130.096 218.105a3.01 3.01 0 0 0-.824-.123h-2.58l15.106-44.099a2.792 2.792 0 0 0-2.634-3.675h-24.65a2.771 2.771 0 0 0-.437.01l-.213.034a2.769 2.769 0 0 0-2.117 2.046l-1.372 5.454a2.794 2.794 0 0 0 2.034 3.38c.212.052.431.08.664.081h3.763l-15.255 43.615a2.792 2.792 0 0 0 2.634 3.674h23.53c1.204 0 2.263-.763 2.656-1.946l1.542-4.971a2.791 2.791 0 0 0-1.847-3.48Zm-24.292 6.488 16.541-47.289h-7.826l.802-3.187h22.264l-16.364 47.774h6.534l-.838 2.702h-21.113Z"/>
</svg>

<?xml version="1.0" encoding="UTF-8" standalone="no"?>
<svg width="256px" height="257px" viewBox="0 0 256 257" version="1.1" xmlns="http://www.w3.org/2000/svg" xmlns:xlink="http://www.w3.org/1999/xlink" preserveAspectRatio="xMidYMid">
	<g>
		<path d="M128.286,1.952 L1.945,127.885 L128.286,254.4 L254.047,127.885 L128.286,1.952" fill="#019833"></path>
		<path d="M128.264,13.516 L128.264,2.885 L2.774,127.908 L13.527,127.908 L128.264,13.516" fill="#66FE98"></path>
		<path d="M128.264,13.516 L128.264,2.885 L254.144,127.908 L242.508,127.908 L128.264,13.516" fill="#45FE02"></path>
		<path fill="#45FE02"></path>
		<path d="M128.264,242.836 L128.264,254.605 L2.774,127.908 L13.527,127.908 L128.264,242.836" fill="#017D17"></path>
		<path d="M128.264,242.836 L128.264,254.605 L254.144,127.908 L242.508,127.908 L128.264,242.836" fill="#005D04"></path>
		<path d="M65.226,230.591 L40.9,230.591 L31.4,221.333 L31.4,44.55 L23.86,44.55 L17.405,38.086 L17.405,18.325 L24.092,11.072 L109.167,11.072 L116.816,18.73 L116.816,37.486 L110.46,45.233 L104.032,45.233 L104.032,104.991 L164.519,45.233 L161.142,45.233 L154.107,37.646 L154.107,17.758 L161.019,11.413 L246.891,11.413 L253.687,18.218 L253.687,37.028 L65.226,230.591" fill="#000000"></path>
		<path d="M128.264,256.342 L0,127.908 L128.264,0 L256,127.908 L128.264,256.342 L128.264,256.342 Z M3.929,127.908 L128.264,252.41 L252.069,127.908 L128.264,3.935 L3.929,127.908 L3.929,127.908 Z" fill="#000000"></path>
		<path d="M108.075,22.742 L111.854,20.301 L107.993,16.293 L26.156,16.293 L21.998,20.457 L21.998,36.207 L26.608,40.823 L28.807,36.207 L25.915,33.31 L25.915,22.207 L28.084,20.276 L105.348,20.371 L108.075,22.742" fill="#FEFEFE"></path>
		<path d="M41.458,35.833 L41.458,220.167 L44.05,222.635 L41.973,226.56 L36.522,221.191 L36.522,40.612 L41.458,35.833" fill="#FEFEFE"></path>
		<path d="M28.236,35.833 L26.608,40.823 L36.494,40.823 L42.213,35.833 L28.236,35.833" fill="#808080"></path>
		<path d="M166.531,35.897 L163.074,33.455 L163.074,23.559 L166.69,19.938 L242.139,19.938 L245.032,23.8 L249.149,20.551 L244.911,16.679 L163.797,16.679 L159.759,20.722 L159.759,36.593 L164.011,40.441 M98.396,116.751 L90.517,135.895 L179.465,46.586 L179.03,35.782 L98.396,116.751" fill="#FEFEFE"></path>
		<path d="M107.897,22.671 L111.854,20.301 L111.854,35.833 L107.337,40.356 L98.559,40.356 L98.396,116.751 L90.547,135.851 L90.547,35.833 L105.206,35.833 L107.933,33.614 L107.897,22.671" fill="#808080"></path>
		<path d="M244.764,22.722 L249.149,20.551 L249.149,34.734 L62.408,226.56 L41.973,226.56 L43.967,222.79 L59.662,222.791 L244.791,31.379 L244.764,22.722" fill="#808080"></path>
		<path d="M179.03,35.782 L174.482,40.351 L164.011,40.441 L166.568,35.851 C166.653,35.851 179.03,35.782 179.03,35.782" fill="#808080"></path>
		<path d="M165.973,19.79 L163.083,22.683 L163.083,33.307 L165.614,35.841 L178.986,35.841 L178.986,46.106 L90.526,135.889 L90.526,35.968 L105.227,35.968 L108.243,32.948 L108.243,22.197 L105.459,20.043 L28.093,20.043 L25.562,22.578 L25.562,33.56 L28.135,36.137 L41.592,36.137 L41.592,220.139 L44.123,222.673 L59.415,222.673 L244.794,31.131 L244.794,22.683 L241.904,19.79 L165.973,19.79" fill="#CCCCCC"></path>
		<path d="M59.519,222.918 L44.022,222.918 L41.348,220.24 L41.348,36.381 L28.034,36.381 L25.318,33.661 L25.318,22.476 L27.992,19.799 L105.543,19.799 L108.488,22.077 L108.488,33.049 L105.329,36.212 L90.77,36.212 L90.77,135.293 L178.742,46.005 L178.742,36.086 L165.513,36.086 L162.839,33.408 L162.839,22.582 L165.871,19.545 L242.005,19.545 L245.038,22.582 L245.038,31.23 L244.97,31.301 L59.519,222.918 L59.519,222.918 Z M44.225,222.429 L59.312,222.429 L244.55,31.033 L244.55,22.784 L241.803,20.034 L166.074,20.034 L163.327,22.784 L163.327,33.206 L165.715,35.597 L179.231,35.597 L179.231,46.206 L179.161,46.277 L90.282,136.485 L90.282,35.724 L105.126,35.724 L107.999,32.846 L107.999,22.317 L105.376,20.287 L28.194,20.287 L25.806,22.679 L25.806,33.459 L28.237,35.893 L41.836,35.893 L41.836,220.037 L44.225,222.429 L44.225,222.429 Z" fill="#808080"></path>
		<path d="M134.566,143.819 C134.425,143.848 134.295,143.914 134.186,144.009 L130.601,147.092 C130.494,147.19 130.414,147.313 130.369,147.451 L126.783,157.505 C126.675,157.806 126.749,158.142 126.973,158.371 L129.715,161.116 C129.874,161.269 130.086,161.352 130.306,161.349 L141.379,161.349 C141.599,161.352 141.811,161.269 141.969,161.116 L144.859,158.202 C144.959,158.102 145.031,157.978 145.07,157.843 L148.15,147.261 C148.235,146.969 148.154,146.653 147.939,146.438 L145.555,144.051 C145.397,143.898 145.184,143.815 144.965,143.819 L134.735,143.819 C134.679,143.813 134.622,143.813 134.566,143.819 L134.566,143.819 Z M114.276,172.162 C113.965,172.229 113.72,172.467 113.643,172.775 L112.272,178.224 C112.161,178.67 112.432,179.123 112.878,179.234 C112.942,179.25 113.007,179.258 113.073,179.259 L119.591,179.259 L103.434,225.449 C103.288,225.886 103.523,226.358 103.959,226.504 C104.041,226.532 104.127,226.547 104.215,226.548 L127.732,226.548 C128.095,226.553 128.419,226.322 128.534,225.977 L130.074,221.014 C130.208,220.574 129.961,220.108 129.521,219.973 C129.441,219.949 129.357,219.936 129.272,219.937 L123.957,219.937 L139.945,173.261 C140.091,172.824 139.856,172.352 139.42,172.206 C139.338,172.178 139.251,172.163 139.164,172.162 L114.444,172.162 C114.388,172.157 114.332,172.157 114.276,172.162 L114.276,172.162 Z M189.111,172.331 C188.93,172.369 188.766,172.465 188.646,172.606 L183.753,178.139 L175.97,178.139 L170.781,172.754 C170.626,172.593 170.414,172.502 170.191,172.5 L151.609,172.5 C151.259,172.501 150.947,172.72 150.828,173.049 L149.12,178.161 C148.974,178.597 149.208,179.069 149.644,179.216 C149.727,179.243 149.813,179.258 149.9,179.259 L154.878,179.259 L139.396,224.942 C139.25,225.379 139.485,225.851 139.921,225.998 C140.003,226.025 140.09,226.04 140.177,226.041 L159.961,226.041 C160.311,226.04 160.622,225.821 160.742,225.492 L162.26,221.035 C162.406,220.599 162.172,220.126 161.736,219.98 C161.653,219.952 161.567,219.938 161.48,219.937 L158.021,219.937 L167.892,188.826 L185.757,188.826 L174.494,224.964 C174.359,225.404 174.606,225.87 175.046,226.004 C175.127,226.029 175.211,226.041 175.295,226.041 L194.383,226.041 C194.715,226.038 195.013,225.839 195.143,225.534 L196.851,221.436 C197.021,221.009 196.812,220.524 196.385,220.355 C196.291,220.318 196.192,220.298 196.092,220.296 L192.633,220.296 L202.673,188.657 L219.673,188.657 L208.241,224.964 C208.107,225.404 208.354,225.87 208.793,226.004 C208.874,226.029 208.958,226.041 209.043,226.041 L230.008,226.041 C230.352,226.043 230.663,225.833 230.789,225.513 L232.497,221.056 C232.655,220.624 232.433,220.146 232.001,219.988 C231.91,219.954 231.814,219.937 231.717,219.937 L227.561,219.937 L240.196,178.858 C240.28,178.598 240.233,178.315 240.069,178.097 L236.146,172.817 C235.984,172.611 235.733,172.493 235.471,172.5 L220.475,172.5 C220.244,172.496 220.023,172.588 219.863,172.754 L215.138,177.949 L206.87,177.949 L201.977,172.585 C201.817,172.419 201.595,172.327 201.365,172.331 L189.279,172.331 C189.223,172.326 189.167,172.326 189.111,172.331 L189.111,172.331 Z" fill="#CCCCCC"></path>
		<path d="M128.359,162.524 C128.882,163.028 129.566,163.304 130.26,163.304 C130.275,163.304 130.29,163.304 130.306,163.303 L141.345,163.303 C142.087,163.326 142.789,163.04 143.358,162.493 L146.241,159.584 C146.575,159.25 146.82,158.833 146.947,158.389 L150.026,147.809 C150.311,146.83 150.041,145.774 149.321,145.057 L146.912,142.644 C146.377,142.128 145.674,141.844 144.965,141.864 L134.805,141.864 C134.659,141.856 134.513,141.859 134.369,141.874 L134.164,141.906 C133.694,142.005 133.255,142.224 132.912,142.526 L129.326,145.61 L129.285,145.647 C128.936,145.965 128.673,146.367 128.521,146.814 L124.943,156.845 C124.584,157.846 124.834,158.982 125.59,159.752 L128.359,162.524 L128.359,162.524 Z M144.513,145.773 L146.088,147.35 L143.272,157.026 L140.926,159.394 L130.758,159.395 L128.861,157.495 L132.118,148.365 L135.132,145.773 L144.513,145.773 L144.513,145.773 Z" fill="#000000"></path>
		<path d="M241.638,176.931 L237.715,171.651 L237.68,171.606 C237.146,170.928 236.32,170.535 235.455,170.546 L220.507,170.546 C219.73,170.528 218.993,170.842 218.458,171.394 L214.274,175.995 L207.733,175.995 L203.421,171.268 L203.381,171.225 C202.847,170.673 202.108,170.378 201.365,170.377 L189.349,170.377 C189.204,170.369 189.057,170.372 188.913,170.387 L188.711,170.418 C188.11,170.543 187.559,170.87 187.182,171.311 L182.872,176.185 L176.801,176.185 L172.186,171.395 C171.671,170.862 170.949,170.552 170.191,170.546 L151.603,170.546 C150.438,170.549 149.389,171.287 148.991,172.383 L147.267,177.538 C146.778,178.995 147.565,180.579 149.023,181.069 C149.299,181.161 149.587,181.21 149.9,181.213 L152.152,181.213 L137.542,224.323 C137.056,225.778 137.843,227.361 139.299,227.851 C139.576,227.943 139.864,227.992 140.177,227.995 L159.967,227.995 C161.133,227.992 162.183,227.253 162.592,226.122 L164.114,221.656 C164.601,220.2 163.814,218.617 162.357,218.127 C162.08,218.034 161.792,217.985 161.48,217.982 L160.691,217.982 L169.322,190.781 L183.1,190.781 L172.624,224.392 C172.175,225.862 173.005,227.423 174.471,227.872 C174.742,227.955 175.032,227.989 175.295,227.995 L194.4,227.995 C195.51,227.986 196.508,227.32 196.947,226.286 L198.669,222.156 C199.234,220.727 198.533,219.104 197.111,218.54 C196.794,218.413 196.461,218.347 196.092,218.341 L195.304,218.341 L204.103,190.612 L217.008,190.612 L206.371,224.394 C205.924,225.863 206.754,227.424 208.219,227.872 C208.484,227.954 208.76,227.995 209.028,227.995 L209.043,227.995 L229.995,227.995 C231.153,227.988 232.189,227.293 232.614,226.212 L234.333,221.727 C234.86,220.284 234.116,218.68 232.673,218.152 C232.37,218.041 232.051,217.984 231.717,217.982 L230.207,217.982 L242.054,179.464 C242.336,178.6 242.178,177.649 241.638,176.931 L241.638,176.931 Z M224.915,221.891 L230.084,221.891 L229.242,224.086 L210.566,224.086 L222.338,186.703 L201.242,186.703 L189.962,222.251 L194.394,222.251 L193.629,224.086 L176.814,224.086 L188.413,186.872 L166.461,186.872 L155.35,221.891 L159.904,221.891 L159.156,224.086 L141.75,224.086 L157.604,177.304 L151.467,177.304 L152.419,174.455 L169.706,174.455 L175.139,180.094 L184.634,180.094 L189.769,174.286 L200.883,174.285 L206.007,179.904 L216.003,179.904 L220.958,174.455 L234.928,174.455 L238.164,178.811 L224.915,221.891 L224.915,221.891 Z" fill="#000000"></path>
		<path d="M130.096,218.105 C129.826,218.022 129.556,217.989 129.272,217.982 L126.692,217.982 L141.798,173.883 C142.287,172.425 141.499,170.842 140.041,170.352 C139.766,170.26 139.478,170.211 139.164,170.208 L114.514,170.208 C114.368,170.2 114.222,170.203 114.077,170.218 L113.864,170.252 C112.818,170.477 112.006,171.262 111.747,172.298 L110.375,177.752 C110.004,179.242 110.914,180.757 112.409,181.132 C112.621,181.184 112.84,181.212 113.073,181.213 L116.836,181.213 L101.581,224.828 C101.092,226.286 101.881,227.869 103.337,228.358 C103.614,228.45 103.902,228.499 104.215,228.502 L127.704,228.502 L127.745,228.502 C128.949,228.502 130.008,227.739 130.401,226.556 L131.943,221.585 C132.392,220.116 131.562,218.554 130.096,218.105 L130.096,218.105 Z M105.804,224.593 L122.345,177.304 L114.519,177.304 L115.321,174.117 L137.585,174.117 L121.221,221.891 L127.755,221.891 L126.917,224.593 L105.804,224.593 L105.804,224.593 Z" fill="#000000"></path>
	</g>
</svg>
